public/img/illustrations/swab-sticker.svg

<svg width="85" height="85" viewBox="0 0 85 85" fill="none" xmlns="http://www.w3.org/2000/svg">
<rect x="4.49121" y="4.49133" width="76.0175" height="76.0175" rx="38.0088" fill="#FCFCF0" stroke="#8ABADD" stroke-width="6"/>
<rect x="6.46484" y="6.46484" width="72.0702" height="72.0702" rx="36.0351" fill="#FCFCF0" stroke="#2D2A26"/>
<g clip-path="url(#clip0_5507_1454)">
<path d="M45.4182 15.6699C45.5319 14.9816 46.0268 14.7426 46.9859 14.9028C47.9449 15.0629 48.338 15.45 48.2244 16.1407C48.1107 16.8314 47.6039 17.0776 46.6544 16.9174C45.7048 16.7573 45.3046 16.3869 45.4182 15.6699Z" fill="#2D2A26"/>
<path d="M55.3574 19.6395C54.9714 20.1892 55.2366 20.7556 56.9085 21.9553C58.2962 22.9495 58.8242 23.0929 59.1108 22.6842C59.3973 22.2756 59.17 21.9673 57.5621 20.6959C55.3977 18.9895 54.7583 17.9977 55.5776 16.8338C56.397 15.6699 57.787 16.1551 59.7099 17.534C61.6328 18.913 62.4782 20.2513 61.5759 21.5347L60.2546 20.5788C60.6571 20.01 60.1906 19.4651 58.8171 18.4804C57.5194 17.5508 57.1216 17.4552 56.8517 17.8399C56.5817 18.2247 56.8256 18.5354 58.2606 19.6969C60.2072 21.2599 61.3841 22.2684 60.4629 23.5804C59.4873 24.9642 57.9907 24.3165 56.0915 22.9543C53.9839 21.4439 52.9846 20.182 54.036 18.686L55.3574 19.6395Z" fill="#2D2A26"/>
<path d="M71.6288 33.0779L64.9248 34.0458L63.8165 32.0789L67.0205 28.0974L61.9766 28.8143L60.873 26.857L65.1166 21.5323L65.981 23.0643L62.6017 27.1701L67.8801 26.4244L68.8629 28.1667L65.5287 32.3992L70.755 31.5484L71.6288 33.0779Z" fill="#2D2A26"/>
<path d="M67.3473 40.9788L66.8902 37.2004L65.4694 36.6889L65.2539 34.9037L71.9011 37.3868L72.1663 39.5783L66.3077 43.6124L66.0922 41.8176L67.3473 40.9788ZM68.4721 40.226L70.852 38.6343L68.1595 37.6568L68.4721 40.226Z" fill="#2D2A26"/>
<path d="M66.128 52.1492C65.0956 51.8959 64.4941 51.1001 64.8351 49.6972L66.2085 44.0547L72.3252 45.5699L71.0015 51.0021C70.6605 52.4049 69.8483 52.6607 68.9484 52.436C68.5089 52.3178 68.1279 52.0405 67.878 51.6569C67.6571 51.8901 67.378 52.059 67.07 52.1456C66.7621 52.2322 66.4366 52.2335 66.128 52.1492ZM66.6016 50.5815C67.2481 50.744 67.3428 50.3544 67.447 49.9314L68.3303 46.2606L67.0374 45.9403L66.1422 49.6064C66.0404 50.0342 65.9457 50.4213 66.5922 50.5815H66.6016ZM69.5451 46.5617L68.7376 49.8454C68.6334 50.2684 68.5387 50.6555 69.1781 50.8133C69.8175 50.971 69.9003 50.5743 70.0045 50.1513L70.8026 46.8795L69.5451 46.5617Z" fill="#2D2A26"/>
<path d="M63.7244 58.0044C64.2573 58.4489 64.2146 59.0034 63.5942 59.7586C62.9738 60.5138 62.4457 60.662 61.9105 60.2174C61.3753 59.7729 61.4203 59.2065 62.0336 58.4561C62.647 57.7057 63.1821 57.5527 63.7244 58.0044Z" fill="#2D2A26"/>
<path d="M55.3461 64.6984C55.0691 64.0866 54.451 64.034 52.585 64.8967C51.0386 65.6137 50.6502 66.0009 50.8586 66.4549C51.067 66.909 51.4388 66.866 53.338 66.0964C55.886 65.0592 57.0559 64.9971 57.6455 66.2924C58.2352 67.5877 57.1222 68.5628 54.9791 69.5546C52.836 70.5464 51.2612 70.6157 50.6124 69.1866L52.0853 68.5055C52.3742 69.1412 53.0751 69.0073 54.6049 68.2975C56.0542 67.6284 56.3336 67.3416 56.137 66.8994C55.9405 66.4573 55.5545 66.5314 53.84 67.203C51.5264 68.1255 50.0724 68.6488 49.407 67.1862C48.6966 65.6424 50.0109 64.6577 52.1303 63.6779C54.4794 62.5929 56.0613 62.3491 56.8191 64.0172L55.3461 64.6984Z" fill="#2D2A26"/>
<path d="M35.6152 72.1119L38.1988 65.7954L40.439 65.8336L42.2174 70.6373L44.1545 65.8838L46.3875 65.9197L48.7698 72.315L47.0222 72.2887L45.2414 67.27L43.1907 72.2314L41.2015 72.2003L39.307 67.1648L37.3747 72.1382L35.6152 72.1119Z" fill="#2D2A26"/>
<path d="M31.0398 64.481L34.5066 65.9722L35.6528 64.9924L37.2915 65.6974L31.8449 70.2621L29.8321 69.397L29.2969 62.2727L30.9545 62.9897L31.0398 64.481ZM31.1203 65.8384L31.2955 68.7063L33.4812 66.8422L31.1203 65.8384Z" fill="#2D2A26"/>
<path d="M22.0746 57.7988C22.8135 57.0269 23.7962 56.9002 24.8263 57.9016L28.9728 61.9357L24.6014 66.5123L20.6112 62.6312C19.5811 61.6298 19.7705 60.791 20.4123 60.117C20.7337 59.792 21.1632 59.5987 21.6176 59.5745C21.5292 59.2643 21.525 58.9359 21.6054 58.6236C21.6858 58.3112 21.8479 58.0264 22.0746 57.7988ZM25.1531 63.58L22.7495 61.2426C22.4393 60.9415 22.1551 60.6643 21.6981 61.1399C21.2411 61.6155 21.5347 61.8879 21.852 62.1986L24.2556 64.5359L25.1531 63.58ZM23.1853 58.9938C22.7235 59.4717 23.0077 59.7537 23.3202 60.0573L26.0151 62.6861L26.9386 61.7302L24.2438 59.1013C23.9336 58.7858 23.647 58.5086 23.1853 58.9938Z" fill="#2D2A26"/>
<path d="M18.2546 52.7849C17.6058 53.0239 17.1535 52.7132 16.8149 51.7931C16.4762 50.873 16.6136 50.3377 17.2624 50.0939C17.9113 49.8501 18.3754 50.1704 18.7117 51.0809C19.0479 51.9915 18.913 52.5363 18.2546 52.7849Z" fill="#2D2A26"/>
<path d="M16.7227 42.1068C17.3834 42.1713 17.7409 41.6575 17.9327 39.5974C18.0938 37.8886 17.9541 37.3557 17.4591 37.3079C16.9642 37.2601 16.815 37.6114 16.5119 39.6548C16.1283 42.3983 15.5955 43.4523 14.1888 43.3185C12.7822 43.1846 12.5051 41.7244 12.7277 39.356C12.9503 36.9877 13.675 35.58 15.2284 35.7282L15.0887 37.3557C14.3996 37.2888 14.1628 37.9675 14.0041 39.6595C13.8549 41.2584 13.971 41.6527 14.4375 41.6981C14.904 41.7435 15.0461 41.3731 15.3279 39.5472C15.6949 37.0641 15.9744 35.5322 17.561 35.6828C19.2352 35.8429 19.4246 37.4752 19.2186 39.8173C18.9818 42.4127 18.3898 43.9159 16.5806 43.7415L16.7227 42.1068Z" fill="#2D2A26"/>
<path d="M20.175 21.1667L24.3357 26.5679L23.1966 28.5156L18.1669 27.6911L21.3022 31.7539L20.1679 33.6921L13.4805 32.6167L14.378 31.0895L19.5877 32.012L16.3221 27.7604L17.3333 26.0325L22.6093 26.8571L19.2941 22.7011L20.175 21.1667Z" fill="#2D2A26"/>
<path d="M29.0799 20.9898L26.0677 23.277L26.3353 24.7682L24.9145 25.8485L23.7305 18.7983L25.4781 17.4719L31.8719 20.5788L30.451 21.6662L29.0799 20.9898ZM27.8769 20.3828L25.3194 19.097L25.8262 21.9386L27.8769 20.3828Z" fill="#2D2A26"/>
<path d="M39.2934 16.5016C39.587 17.5317 39.2034 18.4565 37.8276 18.8533L32.291 20.4497L30.5576 14.3388L35.8858 12.7973C37.2616 12.4006 37.8844 12.9837 38.1402 13.8823C38.2576 14.3264 38.2087 14.7987 38.0028 15.2087C38.3135 15.2866 38.5976 15.4479 38.8248 15.6755C39.052 15.9032 39.2139 16.1886 39.2934 16.5016ZM32.7954 16.2937L36.0042 15.3664C36.4186 15.2445 36.7998 15.1274 36.6175 14.4989C36.4351 13.8704 36.0586 13.9803 35.6347 14.1022L32.426 15.0294L32.7954 16.2937ZM37.7163 16.8649C37.5316 16.2172 37.1503 16.3272 36.7359 16.449L33.1364 17.4886L33.5035 18.7816L37.1124 17.7491C37.5174 17.6296 37.8986 17.5197 37.7163 16.8649Z" fill="#2D2A26"/>
</g>
<g clip-path="url(#clip1_5507_1454)">
<path d="M45.7556 36.216L35.3282 54.2767C35.1496 54.5861 34.7286 54.7167 34.193 54.6787C33.6563 54.6401 33.0063 54.432 32.3672 54.063C31.089 53.3251 30.343 52.2243 30.7006 51.6049L41.1279 33.5442L45.7556 36.216Z" fill="#307FE2"/>
<path d="M47.762 33.8464L42.1759 30.6212C41.3467 30.1425 40.9947 29.195 41.3907 28.5092L42.6275 26.367C43.0234 25.6811 44.02 25.5122 44.8492 25.991L50.4353 29.2161C51.2651 29.6952 51.6177 30.643 51.2217 31.3288L49.9849 33.4711C49.5889 34.1569 48.5912 34.3251 47.762 33.8464ZM44.2843 26.9694C44.1024 26.8643 43.8859 26.8978 43.8011 27.0446L42.5643 29.1868C42.4796 29.3336 42.5588 29.5378 42.7408 29.6428L48.3269 32.868C48.5094 32.9734 48.7265 32.9402 48.8112 32.7934L50.048 30.6512C50.1328 30.5045 50.0529 30.2999 49.8704 30.1945L44.2843 26.9694Z" fill="#2D2A26"/>
<path d="M34.181 55.065C32.6563 55.2548 31.1908 54.4085 30.5928 52.9931C30.1737 52.0014 30.2438 50.8704 30.7821 49.938L42.1225 30.2959C42.2632 30.0521 42.6287 30.0005 42.9389 30.1796C43.2492 30.3587 43.3872 30.7011 43.2465 30.9448L31.9722 50.4725C31.6331 51.0598 31.5929 51.7733 31.8637 52.3951C32.2385 53.2555 33.1309 53.771 34.0635 53.6654C34.7372 53.589 35.3346 53.1976 35.6736 52.6105L46.9483 33.0821C47.0891 32.8383 47.4546 32.7867 47.7648 32.9658C48.075 33.1449 48.2131 33.4873 48.0723 33.731L36.7315 53.3739C36.1933 54.3061 35.2492 54.9321 34.181 55.065Z" fill="#2D2A26"/>
<path d="M45.0984 36.2566L41.373 34.1057C41.1335 33.9675 41.0512 33.6612 41.1898 33.4212C41.3284 33.1811 41.6348 33.0993 41.8743 33.2375L45.5997 35.3884C45.8392 35.5267 45.9215 35.8329 45.7829 36.073C45.6443 36.313 45.3384 36.3951 45.0984 36.2566Z" fill="#2D2A26"/>
<path d="M43.5118 53.6157L42.6451 53.113L50.3562 39.8182C50.4949 39.5788 50.8013 39.497 51.0404 39.635L51.0413 39.6355C51.2805 39.7742 51.3621 40.0807 51.2234 40.32L43.5118 53.6157Z" fill="#2D2A26"/>
<path d="M50.5428 40.5061C50.5402 40.5046 50.538 40.5033 50.5354 40.5018C50.2855 40.3546 49.891 39.9567 50.0525 38.9427C50.1473 38.3486 50.4159 37.654 50.8084 36.9882C51.5804 35.679 52.8266 34.5146 53.7429 35.0436L53.7502 35.0478C53.9999 35.1955 54.3944 35.5934 54.2325 36.6071C54.1381 37.2014 53.8694 37.8954 53.4766 38.5616C52.7045 39.8708 51.4586 41.0348 50.5428 40.5061ZM53.224 35.8981C53.0884 35.8956 52.3609 36.3281 51.6713 37.4974C50.9818 38.6666 50.9551 39.5125 51.0607 39.6521C51.1968 39.6549 51.9241 39.2217 52.6134 38.0529C52.6134 38.0529 52.6134 38.0529 52.6136 38.0524C53.3027 36.8841 53.3299 36.0374 53.224 35.8981Z" fill="#2D2A26"/>
<path d="M40.1459 58.4027C40.1433 58.4012 40.1407 58.3997 40.1381 58.3982C39.8892 58.251 39.4952 57.8534 39.6567 56.8394C39.7513 56.2446 40.0196 55.5505 40.4122 54.8846C41.1839 53.5759 42.4301 52.4114 43.3459 52.9402L43.3533 52.9444C44.27 53.4858 43.8544 55.1454 43.0803 56.4581C42.6876 57.1244 42.2101 57.6949 41.7357 58.0657C40.9349 58.6921 40.3984 58.5485 40.1459 58.4027ZM42.8271 53.7947C42.6919 53.7925 41.9641 54.2254 41.2748 55.3942C40.5858 56.5626 40.5593 57.4091 40.6646 57.5492C40.8003 57.5517 41.5281 57.1188 42.2169 55.9497C42.9064 54.7805 42.9334 53.9342 42.8271 53.7947Z" fill="#2D2A26"/>
<path d="M40.7054 40.8438L39.5986 40.2048C39.3591 40.0666 39.2768 39.7603 39.4154 39.5203C39.554 39.2802 39.8604 39.1984 40.0999 39.3367L41.2066 39.9756C41.4461 40.1139 41.5284 40.4202 41.3898 40.6602C41.2512 40.9003 40.9448 40.9821 40.7054 40.8438Z" fill="#2D2A26"/>
<path d="M36.4593 48.1977L35.3525 47.5587C35.113 47.4205 35.0307 47.1142 35.1693 46.8742C35.3079 46.6341 35.6143 46.5523 35.8538 46.6905L36.9605 47.3295C37.2 47.4678 37.2823 47.774 37.1437 48.0141C37.0051 48.2541 36.6987 48.336 36.4593 48.1977Z" fill="#2D2A26"/>
<path d="M35.5896 48.4239C35.3501 48.2856 35.2678 47.9793 35.4064 47.7393L36.0375 46.6462C36.1761 46.4062 36.4824 46.3244 36.7219 46.4626C36.9614 46.6009 37.0437 46.9072 36.9052 47.1472L36.2741 48.2402C36.1355 48.4803 35.8295 48.5624 35.5896 48.4239Z" fill="#2D2A26"/>
</g>
<defs>
<clipPath id="clip0_5507_1454">
<rect width="59.6491" height="59.6491" fill="white" transform="translate(12.6758 12.6754)"/>
</clipPath>
<clipPath id="clip1_5507_1454">
<rect width="32.0614" height="31.3158" fill="white" transform="translate(36.0732 20.9244) rotate(30)"/>
</clipPath>
</defs>
</svg>

<svg width="85" height="85" fill="none" xmlns="http://www.w3.org/2000/svg"><rect x="4.491" y="4.491" width="76.017" height="76.017" rx="38.009" fill="#FCFCF0" stroke="#8ABADD" stroke-width="6"/><rect x="6.465" y="6.465" width="72.07" height="72.07" rx="36.035" fill="#FCFCF0" stroke="#2D2A26"/><g clip-path="url(#clip0_5507_1454)" fill="#2D2A26"><path d="M45.418 15.67c.114-.688.609-.927 1.568-.767.959.16 1.352.547 1.238 1.238-.113.69-.62.937-1.57.776-.95-.16-1.35-.53-1.236-1.247zm9.939 3.97c-.386.55-.12 1.116 1.551 2.315 1.388.995 1.916 1.138 2.203.73.286-.41.059-.718-1.549-1.99-2.164-1.706-2.804-2.697-1.984-3.861.819-1.164 2.209-.679 4.132.7 1.923 1.379 2.768 2.717 1.866 4l-1.321-.955c.402-.569-.064-1.114-1.438-2.099-1.298-.93-1.695-1.025-1.965-.64-.27.385-.026.695 1.409 1.857 1.946 1.563 3.123 2.571 2.202 3.883-.976 1.384-2.472.737-4.371-.626-2.108-1.51-3.107-2.772-2.056-4.268l1.321.954zm16.272 13.438l-6.704.968-1.108-1.967 3.203-3.982-5.043.717-1.104-1.957 4.244-5.325.864 1.532-3.38 4.106 5.28-.746.982 1.743-3.334 4.232 5.226-.85.874 1.529zm-4.282 7.901L66.89 37.2l-1.42-.511-.216-1.785 6.647 2.483.265 2.191-5.858 4.034-.216-1.794 1.255-.84zm1.125-.753l2.38-1.592-2.693-.977.313 2.569zM66.128 52.15c-1.032-.254-1.634-1.05-1.293-2.453l1.374-5.642 6.116 1.515-1.324 5.432c-.34 1.403-1.153 1.659-2.053 1.434a1.852 1.852 0 01-1.07-.78 1.775 1.775 0 01-1.75.493zm.474-1.569c.646.163.74-.227.845-.65l.883-3.67-1.293-.32-.895 3.665c-.102.428-.196.815.45.975h.01zm2.943-4.02l-.807 3.284c-.105.423-.2.81.44.968.64.158.722-.239.826-.662l.799-3.272-1.258-.317zm-5.821 11.443c.533.445.49 1-.13 1.755-.62.755-1.148.903-1.684.458-.535-.444-.49-1.01.124-1.76.613-.751 1.148-.904 1.69-.453zm-8.378 6.694c-.277-.611-.895-.664-2.761.199-1.546.717-1.935 1.104-1.726 1.558.208.454.58.411 2.479-.359 2.548-1.037 3.718-1.099 4.307.196.59 1.296-.523 2.27-2.666 3.263-2.143.991-3.718 1.06-4.367-.368l1.473-.681c.29.635.99.501 2.52-.209 1.45-.669 1.729-.955 1.532-1.398-.197-.442-.583-.368-2.297.304-2.314.922-3.768 1.446-4.433-.017-.71-1.544.604-2.528 2.723-3.508 2.35-1.085 3.931-1.329 4.69.34l-1.474.68zm-19.731 7.414l2.584-6.317 2.24.039 1.778 4.803 1.938-4.753 2.233.036 2.382 6.395-1.748-.026-1.78-5.019-2.051 4.961-1.99-.03-1.894-5.036-1.932 4.973-1.76-.026zm-4.575-7.631l3.467 1.491 1.146-.98 1.639.705-5.447 4.565-2.013-.865-.535-7.124 1.657.717.086 1.491zm.08 1.357l.175 2.868 2.186-1.864-2.36-1.004zm-9.045-8.039c.739-.772 1.721-.899 2.751.103l4.147 4.034-4.372 4.576-3.99-3.88c-1.03-1.002-.84-1.841-.199-2.515a1.833 1.833 0 011.206-.542 1.817 1.817 0 01.457-1.776zm3.078 5.781l-2.403-2.337c-.31-.302-.595-.579-1.052-.103-.457.475-.163.748.154 1.059l2.404 2.337.897-.956zm-1.968-4.586c-.461.478-.177.76.135 1.063l2.695 2.63.924-.957-2.695-2.629c-.31-.315-.597-.592-1.059-.107zm-4.93-6.209c-.65.239-1.101-.072-1.44-.992-.339-.92-.201-1.455.447-1.7.65-.243 1.113.077 1.45.988.336.91.201 1.455-.457 1.704zm-1.532-10.678c.66.064 1.018-.45 1.21-2.51.16-1.708.021-2.241-.474-2.29-.495-.047-.644.304-.947 2.348-.384 2.743-.917 3.797-2.323 3.663-1.407-.133-1.684-1.594-1.461-3.962.222-2.368.947-3.776 2.5-3.628l-.14 1.628c-.688-.067-.925.611-1.084 2.303-.15 1.6-.033 1.994.434 2.04.466.044.608-.326.89-2.152.367-2.483.646-4.015 2.233-3.864 1.674.16 1.864 1.792 1.658 4.134-.237 2.596-.83 4.099-2.638 3.925l.142-1.635zm3.452-20.94l4.16 5.4-1.138 1.949-5.03-.825 3.135 4.063-1.134 1.938-6.688-1.075.898-1.527 5.21.922-3.266-4.252 1.011-1.728 5.276.825-3.315-4.156.881-1.534zm8.905-.177l-3.012 2.287.267 1.491-1.42 1.08-1.184-7.05 1.747-1.326 6.394 3.107-1.421 1.087-1.371-.676zm-1.203-.607l-2.558-1.286.507 2.842 2.05-1.556zm11.416-3.881c.294 1.03-.09 1.954-1.465 2.351L32.29 20.45l-1.733-6.111 5.328-1.542c1.376-.396 1.998.187 2.254 1.085.118.444.069.917-.137 1.327a1.777 1.777 0 011.29 1.293zm-6.498-.208l3.21-.928c.414-.121.795-.239.612-.867-.182-.629-.558-.519-.982-.397l-3.209.927.37 1.265zm4.921.57c-.184-.647-.566-.537-.98-.415l-3.6 1.04.367 1.293 3.61-1.033c.404-.12.786-.23.603-.884z"/></g><g clip-path="url(#clip1_5507_1454)"><path d="M45.756 36.216l-10.428 18.06c-.178.31-.6.44-1.135.403-.537-.039-1.187-.247-1.826-.616-1.278-.738-2.024-1.839-1.666-2.458l10.427-18.06 4.628 2.671z" fill="#307FE2"/><path d="M47.762 33.846l-5.586-3.225c-.83-.479-1.181-1.426-.785-2.112l1.236-2.142c.396-.686 1.393-.855 2.222-.376l5.586 3.225c.83.48 1.183 1.427.787 2.113l-1.237 2.142c-.396.686-1.394.854-2.223.375zm-3.478-6.877c-.182-.105-.398-.071-.483.076l-1.237 2.142c-.084.147-.005.35.177.456l5.586 3.225c.182.105.4.072.484-.075l1.237-2.142c.085-.146.005-.351-.178-.456l-5.586-3.226z" fill="#2D2A26"/><path d="M34.181 55.065a3.435 3.435 0 01-3.399-5.127l11.34-19.642c.141-.244.507-.296.817-.116.31.179.448.521.307.765L31.972 50.472a2.138 2.138 0 003.702 2.139l11.274-19.529c.141-.244.507-.295.817-.116.31.179.448.521.307.765l-11.34 19.643a3.435 3.435 0 01-2.551 1.691z" fill="#2D2A26"/><path d="M45.098 36.257l-3.725-2.151a.5.5 0 11.501-.869l3.726 2.151a.501.501 0 11-.502.869zm-1.586 17.359l-.867-.503 7.711-13.295a.501.501 0 01.684-.183h.001a.5.5 0 01.182.685l-7.711 13.296z" fill="#2D2A26"/><path d="M50.543 40.506l-.008-.004c-.25-.147-.644-.545-.482-1.56.094-.593.363-1.288.755-1.954.772-1.309 2.019-2.473 2.935-1.944l.007.004c.25.148.644.545.483 1.56-.095.593-.364 1.287-.756 1.954-.772 1.309-2.018 2.473-2.934 1.944zm2.681-4.608c-.136-.002-.863.43-1.553 1.6-.69 1.169-.716 2.015-.61 2.154.136.003.863-.43 1.552-1.6.69-1.168.717-2.015.611-2.154zM40.146 58.403l-.008-.005c-.249-.147-.643-.545-.481-1.559.094-.594.363-1.288.755-1.954.772-1.31 2.018-2.474 2.934-1.945l.007.004c.917.542.501 2.201-.273 3.514-.392.666-.87 1.237-1.344 1.608-.801.626-1.338.482-1.59.337zm2.681-4.608c-.135-.003-.863.43-1.552 1.6-.69 1.168-.716 2.014-.61 2.154.135.003.863-.43 1.552-1.6.69-1.168.716-2.015.61-2.154zm-2.122-12.951l-1.106-.64a.5.5 0 11.5-.867l1.108.639a.501.501 0 01-.502.868zm-4.245 7.354l-1.108-.64a.5.5 0 11.502-.867l1.107.639a.501.501 0 01-.502.868z" fill="#2D2A26"/><path d="M35.59 48.424a.501.501 0 01-.184-.685l.632-1.093a.501.501 0 11.867.501l-.63 1.093a.5.5 0 01-.685.184z" fill="#2D2A26"/></g><defs><clipPath id="clip0_5507_1454"><path fill="#fff" transform="translate(12.676 12.675)" d="M0 0h59.649v59.649H0z"/></clipPath><clipPath id="clip1_5507_1454"><path fill="#fff" transform="rotate(30 -21.009 77.776)" d="M0 0h32.061v31.316H0z"/></clipPath></defs></svg>
